X:1     
T:In a British Man O' War
B: Purslow, F, (1968), The Wanton Seed, EDFS, London
S:George Blake, St. Denys, Southampton Hants, June 1906
Z:Gardiner H.325
F:http://www.folkinfo.org/songs
M:4/4     %Meter
L:1/8     %
K:F
C3/2D/ |F2 A2 (GA)(BG) |F4 C2 A,2 |C2 F2 (EF) G2 | F6
w:It was down in yon-*der_ mea-dows I care-less-ly_ did stray; 
 A2 |A2 G2 A2 B2 |c2 c2 F2 c2 |B2 (AG) (FE) F2 | G6
w:There I be-held a la-dy fair with some young_ sail-*or gay.
G2 |A2 G2 A2 B2 |c4 F2 c2 |(BA) G2 F2 C2 |B6
w:He said, "My love-ly Sus-an, I soon_ must leave the shore,
d2 |c3 A B2 G2 |F2 C2 A,2 C2 |F2 F2 (EF) G2 | F6 z2 |]
w:To cross the bri-ny oc-ean in a Brit-ish man_ of war." 